X:242
T:Dj\"avulspolska fr{\aa}n S\"ormland
R:sl\"angpolska
A:S\"ormland, Flen ?
Z:id:hn-sp-242
M:3/4
L:1/16
K:A
A2Ac efec A2Ac | cBAG A2E2 C2E2 | A2Ac efec A2Ac | cBAG A4 a4 :|
|: e4 A4 E4 | B2B2 cBAB c2A2 | e2e2 A2A2 E2E2 | B2B2 cBAB c2A2 |
AcAc efec A2Ac | cBAG A4 a4 :||: DFAF DFAF DFAF | CEAE CEAE CEAE |
B,EdE B,EdE B,EdE | A,EcE A,EcE A,EcE | AcAc efec A2Ac | cBAG A4 a4 :|

